X:875
T:Sångpolska
T:efter Pelle Fors
R:Polska
Z:Björn Ek 2008-12-31
O:Vikbolandet, Östergötland
S:efter Pelle Fors
B:Låtar efter Pelle Fors
M:3/4
L:1/8
K:G
%
|:G2D2 DG|F>E DC B,D|G2 GF GA| A2 B4:|
%
||G>B A2 AF|G>B A3 F|G>B A2 AF|
G>B A3 F|FE D2 FA|A2 G4|]
%
W:Femtusen det vill jag giva dig
W:och sex torde jag väl lova.
W:För om jag ägde en halver natt
W:ja om jag ägde en halver natt
W:och hos min hjärtunge sova.
%
(:musicend:)

(:music:)
